X: 30253
T: Old Killavil, The
R: jig
M: 6/8
K: Dmajor
|:"D"DFF AFF|BFF AFF|DFF AFF|"A7"ECE GEC|
"D"DFF AFF|BFF AFA|dcd "A7"ede|1 "D"fdc dAF:|2 "D"fdc d2B||
|:"D"Add fdd|add fdd|"A7"Ace gfe|Ace gfe|
[1"D"Add fdd|add fdd|"A7" gfe "D"dBA|"A7"E2F GFE:|
[2 ~"D"f3 gfg|agf "A7"g2e|"A7" gfe "D"dBA|"A7"E2F GFE||

